src/icons/outline/ai/voice-analytics.svg

<svg width="24" height="24" viewBox="0 0 24 24" fill="none" xmlns="http://www.w3.org/2000/svg">
<g clip-path="url(#clip0_6362_982)">
<path d="M13.7559 16.708C13.9553 16.5109 14.2637 16.5215 14.4531 16.7188C14.6127 16.885 15.9992 18.2563 17.7344 16.7188C17.9438 16.5317 18.2531 16.5627 18.4326 16.7705C18.6121 16.9887 18.5823 17.311 18.3828 17.498C17.575 18.2149 16.7871 18.4746 16.0791 18.4746V18.4639C15.0419 18.4639 14.1839 17.9031 13.7451 17.4355C13.5558 17.2277 13.5664 16.9054 13.7559 16.708Z" fill="#3C3B44"/>
<path d="M13.9551 13.1445C14.4635 13.1446 14.8718 13.5699 14.8721 14.0996C14.8721 14.6191 14.4537 15.0556 13.9551 15.0557C13.4564 15.0557 13.0576 14.6295 13.0576 14.0996C13.0578 13.5699 13.4466 13.1445 13.9551 13.1445Z" fill="#3C3B44"/>
<path d="M17.9639 13.1445C18.4723 13.1445 18.8611 13.5595 18.8613 14.0996C18.8613 14.6295 18.4625 15.0557 17.9639 15.0557C17.4653 15.0555 17.0566 14.6294 17.0566 14.0996C17.0569 13.57 17.4555 13.1447 17.9639 13.1445Z" fill="#3C3B44"/>
<path fill-rule="evenodd" clip-rule="evenodd" d="M15.8994 9.85059V9.86035C18.8513 9.86035 21.2449 12.3541 21.2451 15.4297C21.2451 18.5054 18.8514 21 15.8994 21C12.9475 20.9998 10.5547 18.5053 10.5547 15.4297C10.5547 15.1908 10.5646 14.9521 10.6045 14.7236C10.784 13.2378 11.5316 11.9285 12.5986 11.0557C13.5161 10.3076 14.6529 9.85066 15.8994 9.85059ZM15.8994 11.2109C13.6657 11.2111 11.8508 13.1024 11.8506 15.4297C11.8506 17.7572 13.6556 19.659 15.8994 19.6592C18.1334 19.6592 19.959 17.7573 19.959 15.4297C19.9588 13.1023 18.1332 11.2109 15.8994 11.2109Z" fill="#3C3B44"/>
<path d="M6.84375 4C9.9653 4 12.5086 6.54603 12.6582 9.75684C12.1598 10.0581 11.7211 10.4216 11.3223 10.8682C11.3721 10.619 11.3916 10.349 11.3916 10.0791C11.3916 7.47097 9.35695 5.34082 6.84375 5.34082C4.33075 5.34106 2.28613 7.44998 2.28613 10.0684C2.28615 12.6867 4.33076 14.8171 6.84375 14.8174C7.98067 14.8174 9.01877 14.3914 9.80664 13.6641C9.64713 14.2251 9.56641 14.807 9.56641 15.4199V15.4609C8.75863 15.9077 7.83101 16.168 6.84375 16.168C3.62279 16.1677 1.0002 13.4351 1 10.0791C1 6.72297 3.72238 4.00025 6.84375 4Z" fill="#3C3B44"/>
<path d="M4.51074 12.0742C6.4953 10.3078 8.40941 11.3363 9.14746 12.126C9.33695 12.3338 9.32718 12.6561 9.1377 12.8535C9.03803 12.9469 8.91838 12.999 8.79883 12.999H8.78906C8.65941 12.999 8.52942 12.9467 8.42969 12.8428C8.26996 12.6764 6.88341 11.3054 5.1582 12.8535C4.94878 13.0401 4.64033 13.0085 4.46094 12.8008C4.28146 12.5826 4.3113 12.2612 4.51074 12.0742Z" fill="#3C3B44"/>
<path d="M20.5068 5.01855C20.5966 5.01855 20.687 5.04902 20.7568 5.11133C20.8166 5.17361 20.8658 5.25718 20.8857 5.35059C21.0653 6.31695 21.7938 7.0864 22.6914 7.27344C22.7711 7.29425 22.8513 7.34626 22.9111 7.41895C22.9707 7.49162 23 7.58537 23 7.67871C22.9999 7.77211 22.9709 7.86583 22.9111 7.93848C22.8613 8.01119 22.7811 8.0632 22.6914 8.08398C21.7938 8.27102 21.0653 9.0395 20.8857 10.0059C20.8758 10.0993 20.8266 10.1828 20.7568 10.2451C20.687 10.3075 20.5966 10.3389 20.5068 10.3389C20.4172 10.3388 20.3275 10.3073 20.2578 10.2451C20.198 10.1828 20.1479 10.0994 20.1279 10.0059C19.9484 9.03963 19.2207 8.27108 18.3232 8.08398C18.2336 8.06322 18.1536 8.01111 18.0938 7.93848C18.034 7.86583 18.004 7.77211 18.0039 7.67871C18.0039 7.58528 18.034 7.49165 18.0938 7.41895C18.1536 7.34621 18.2335 7.29422 18.3232 7.27344C19.2208 7.08639 19.9484 6.31693 20.1279 5.35059C20.1379 5.25713 20.188 5.17364 20.2578 5.11133C20.3275 5.04918 20.4173 5.01864 20.5068 5.01855Z" fill="#3C3B44"/>
<path d="M4.91895 7.66797C5.41759 7.66797 5.82715 8.09408 5.82715 8.62402C5.82714 9.14356 5.41759 9.56934 4.91895 9.56934C4.42051 9.56907 4.01173 9.1434 4.01172 8.62402C4.01172 8.10464 4.42051 7.66824 4.91895 7.66797Z" fill="#3C3B44"/>
<path d="M8.92871 7.66797C9.43726 7.66805 9.82617 8.09414 9.82617 8.62402C9.82616 9.14351 9.41732 9.56925 8.92871 9.56934C8.44004 9.56934 8.01075 9.14356 8.01074 8.62402C8.01074 8.10447 8.42009 7.66797 8.92871 7.66797Z" fill="#3C3B44"/>
</g>
<defs>
<clipPath id="clip0_6362_982">
<rect width="24" height="24" fill="white"/>
</clipPath>
</defs>
</svg>

<svg xmlns="http://www.w3.org/2000/svg" width="24" height="24" fill="none" viewBox="0 0 24 24"><g fill="currentColor" clip-path="url(#a)"><path d="M13.756 16.708a.485.485 0 0 1 .697.01c.16.167 1.546 1.538 3.281 0a.487.487 0 0 1 .699.052c.18.219.15.541-.05.728-.808.717-1.596.977-2.304.977v-.011c-1.037 0-1.895-.56-2.334-1.028a.537.537 0 0 1 .01-.728m.2-3.563c.508 0 .917.425.917.955 0 .52-.418.956-.917.956s-.897-.426-.897-.956.389-.955.897-.955m4.009 0c.508 0 .897.415.897.955 0 .53-.399.956-.897.956-.499 0-.907-.427-.907-.956 0-.53.399-.955.907-.955"/><path fill-rule="evenodd" d="M15.9 9.85v.01c2.951 0 5.345 2.494 5.345 5.57S18.851 21 15.9 21s-5.344-2.495-5.344-5.57c0-.24.01-.478.05-.706a5.62 5.62 0 0 1 1.994-3.668c.917-.748 2.054-1.205 3.3-1.205m0 1.36c-2.234.001-4.05 1.892-4.05 4.22s1.806 4.229 4.05 4.23c2.233 0 4.059-1.903 4.059-4.23s-1.826-4.22-4.06-4.22" clip-rule="evenodd"/><path d="M6.844 4c3.121 0 5.665 2.546 5.814 5.757a5.8 5.8 0 0 0-1.336 1.111c.05-.249.07-.519.07-.789 0-2.608-2.035-4.738-4.548-4.738S2.286 7.45 2.286 10.068s2.045 4.75 4.558 4.75a4.34 4.34 0 0 0 2.963-1.154 6.4 6.4 0 0 0-.24 1.756v.04a5.6 5.6 0 0 1-2.723.708C3.623 16.168 1 13.435 1 10.079S3.722 4 6.844 4"/><path d="M4.51 12.074c1.985-1.766 3.9-.738 4.637.052.19.208.18.53-.01.728a.5.5 0 0 1-.338.145h-.01a.5.5 0 0 1-.36-.156c-.159-.167-1.546-1.538-3.27.01a.486.486 0 0 1-.698-.052.536.536 0 0 1 .05-.727m15.996-7.055c.09 0 .18.03.25.092.06.063.109.146.129.24.18.966.908 1.735 1.805 1.922.08.021.16.073.22.146a.4.4 0 0 1 .089.26.4.4 0 0 1-.089.26.37.37 0 0 1-.22.145c-.897.187-1.626.956-1.805 1.922a.38.38 0 0 1-.13.24.375.375 0 0 1-.498 0 .5.5 0 0 1-.13-.24c-.18-.966-.907-1.735-1.805-1.922a.41.41 0 0 1-.32-.405.41.41 0 0 1 .32-.406c.898-.187 1.625-.956 1.805-1.922a.38.38 0 0 1 .13-.24.37.37 0 0 1 .249-.092M4.919 7.668c.499 0 .908.426.908.956 0 .52-.41.945-.908.945s-.907-.426-.907-.945c0-.52.409-.956.907-.956m4.01 0c.508 0 .897.426.897.956 0 .52-.409.945-.897.945s-.918-.425-.918-.945.41-.956.918-.956"/></g><defs><clipPath id="a"><path fill="currentColor" d="M0 0h24v24H0z"/></clipPath></defs></svg>
